!!!Genre:	Freylekhs
!!!Mode:	Freygish
!!!Listening/dance:	dance
!!!:	*G:frey
!!!One_Mode:	no
**kern
*thru
*I"P1
*clefG2
*k[b-e-]
*>bM
*c:dor
*M2/4
*>A
=1
!LO:TX:a:i:t=C-dorian
8r
8gL
8cc
8ee-J
=2
4gg
4gg
=3
4ff#X
12ee-L
12dd
12ccJ
=4
8ff#X
(8qaa/
[4.gg)
=5
8ggL]
8g
8cc
8ee-J
=6
4gg
4gg
=7
4ff#X
12ee-L
12dd
12ccJ
*>A1
=8
2dd
*>A2
=9:|!
4..cc
*>B
16cc
=10||
*k[b-e-a-]
16bnLL
16ccJJ
4dd
8dd
=11
(8qff/
8ee-L)
8ddJ
8.ccL
16ccJk
=12
16bnLL
16cc
16dd
16ee-JJ
16ff#XLL
16gg
16ff#
16ee-JJ
=13
16ff#XLL
16gg
16ff#
16ee-JJ
(16ee-LL
16dd)
(16dd
16ccJJ)
*>eM
*G:frey
!LO:TX:a:i:t=G-freygish
=14
16bnLL
16ccJJ
4dd
8dd
=15
(8qffn/
8ee-L)
8ddJ
8.ccL
16ccJk
=16
16bnLL
16cc
16b
16a-JJ
16gLL
16f
16g
16a-JJ
=17
4g
8gg
8r
==
*-
